svg/black/eth.svg

<svg height="32" width="32" xmlns="http://www.w3.org/2000/svg"><g fill-rule="evenodd"><path d="m16 32c-8.837 0-16-7.163-16-16s7.163-16 16-16 16 7.163 16 16-7.163 16-16 16zm7.994-15.781-7.496-12.219-7.498 12.22 7.498 4.353zm.006 1.397-7.502 4.351-7.498-4.35 7.498 10.378z"/><g fill-rule="nonzero"><path d="m16.498 4v8.87l7.497 3.35zm0 17.968v6.027l7.502-10.379z" fill-opacity=".298"/><path d="m16.498 20.573 7.497-4.353-7.497-3.348z" fill-opacity=".801"/><path d="m9 16.22 7.498 4.353v-7.701z" fill-opacity=".298"/></g></g></svg>

<svg xmlns="http://www.w3.org/2000/svg" width="32" height="32"><g fill-rule="evenodd"><path d="M16 32C7.163 32 0 24.837 0 16S7.163 0 16 0s16 7.163 16 16-7.163 16-16 16zm7.994-15.781L16.498 4 9 16.22l7.498 4.353 7.496-4.354zM24 17.616l-7.502 4.351L9 17.617l7.498 10.378L24 17.616z"/><g fill-rule="nonzero"><path fill-opacity=".298" d="M16.498 4v8.87l7.497 3.35zM16.498 21.968v6.027L24 17.616z"/><path fill-opacity=".801" d="M16.498 20.573l7.497-4.353-7.497-3.348z"/><path fill-opacity=".298" d="M9 16.22l7.498 4.353v-7.701z"/></g></g></svg>
